X:1
T:We’ll Crown Him Lord of All
T:We’ll Crown Him Lord of All
T:Daniel Otis Teasley
T:Daniel Otis Teasley, 1902
T:Public Domain Courtesy of the Cyber Hymnal™
T:Public Domain Courtesy of the Cyber Hymnal™
C:Daniel Otis Teasley
Z:Public Domain
Z:Courtesy of the Cyber Hymnal™
%%score ( 1 2 ) ( 3 4 )
L:1/8
Q:1/4=110
M:4/4
K:Eb
V:1 treble 
V:2 treble 
V:3 bass 
V:4 bass 
V:1
 ([B,E][B,F]) | [EG]2 [EG]2 [EG]2 [EG][FA] | [GB]2 [Ge]2 [GB]2 [EG]2 | %3
w: 1.~We’ll *|shout and sing our Re-|deem- er’s praise, Con-|
w: 2.~Tho’~the *|hosts of sin should a-|bout us camp, We’ll|
w: 3.~To *|Christ all pow- er on|earth is giv’n, See|
w: 4.~Soon *|Christ shall come with the|trump- et sound, To|
w: 5.~Then *|in that Heav- en and|earth a- new, Where|
 [DF][DF][FA][FA] [EG]2 [DF]2 | [EG]6 (EF) | [EG]2 [EG]2 [EG]2 ([EG][FA]) | %6
w: tend- ing for the truth and|right; We’ll *|crown Him king in *|
w: shout and sing the vic- tor’s|song; For *|Christ, our Sav- ior,~with- *|
w: now His might- y scep- ter’s|sway; While *|o- thers dream of~an *|
w: raise the dead from land and|sea; Then *|we shall meet him *|
w: love’s e- ter- nal bless- ings|fall, We’ll *|sing His praise while~the *|
 [GB]2 [Ge]2 [GB]2 [EG]2 | [DF][DF][FA][FA] [EG]2 [DF]2 | E6 z2 ||"^Refrain" [GB]4 [EG]2 [Ge]2 | %10
w: ev- ery heart, And|con- quer in Je- ho- vah’s|might.||
w: in us dwells, To|save and keep us from the|wrong.||
w: age to come, He’s|reign- ing in our hearts to-|day.|Crown Him, we’ll|
w: in the air, And|reign with Him e- ter- nal-|ly.||
w: ag- es roll, And|crown the Sav- ior Lord of|all.||
 [Ge]4 [GB]4 | [GB]>[GB] [GB][GB] [GB][EB][DA][EG] | ([DF]4 [GB]2) [FA]2 | [EG]4 [B,E]2 [GB]2 | %14
w: ||||
w: ||||
w: crown Him,|Crown the bless- èd Sav- ior Lord of|all; * We’ll|crown Him, yes,|
w: ||||
w: ||||
 [FA]4 [Fe]4 | [GB]>[GB] [GB][GB] [GB][FA][EG][DF] | E6 |] %17
w: |||
w: |||
w: crown Him,|Crown the bless- èd Sav- ior Lord of|all|
w: |||
w: |||
V:2
 x2 | x8 | x8 | x8 | x6 B,2 | x8 | x8 | x8 | E6 x2 || x8 | x8 | x8 | x8 | x8 | x8 | x8 | %16
 (B,2 CC B,2) |] %17
V:3
 ([E,G,][E,A,]) | [E,B,]2 [E,B,]2 [E,B,]2 [E,B,][E,B,] | [E,E]2 [E,B,]2 [E,E]2 [E,B,]2 | %3
w: ~ *|~ ~ ~ ~ ~|~ ~ ~ ~|
 [B,,B,][B,,B,][B,,B,][B,,B,] [B,,B,]2 [B,,B,]2 | [E,B,]6 (G,A,) | %5
w: ~ ~ ~ ~ ~ ~|~ ~ *|
 [E,B,]2 [E,B,]2 [E,B,]2 ([E,B,][E,B,]) | [E,E]2 [E,B,]2 [E,E]2 [E,B,]2 | %7
w: ~ ~ ~ ~ *|~ ~ ~ ~|
 [B,,B,][B,,B,][B,,B,][B,,B,] [B,,B,]2 [B,,B,]2 | [E,G,]6 z2 || [E,E][E,E][E,E][E,E] [E,B,]2 z2 | %10
w: ~ ~ ~ ~ ~ ~|~|Crown Him Lord of all;|
 [E,B,][E,B,][E,B,][E,B,] [E,E]4 | [E,E]>[E,E] [E,E][E,E] [E,E][G,B,][F,B,][E,B,] | [B,,B,]6 z2 | %13
w: crown Him Lord of all,|~ ~ ~ ~ ~ ~ ~ ~|~|
 [E,B,][E,B,][E,B,][E,B,] [E,G,]2 z2 | [A,E][A,E][A,E][A,E] [A,C]4 | %15
w: Crown Him Lord of all,|crown Him Lord of all,|
 [B,E]>[B,E] [B,E][B,E] [B,,E][B,,B,][B,,B,][B,,A,] | G,2 A,A, G,2 |] %17
w: ~ ~ ~ ~ ~ ~ ~ ~|~ Lord of all.|
V:4
 x2 | x8 | x8 | x8 | x6 E,2 | x8 | x8 | x8 | x8 || x8 | x8 | x8 | x8 | x8 | x8 | x8 | E,6 |] %17

